Papirus/64x64/apps/TeighaViewer.svg

<?xml version="1.0" encoding="UTF-8" standalone="no"?>
<svg xmlns="http://www.w3.org/2000/svg" height="64" viewBox="0 0 64 64" width="64" version="1.1">
 <path style="opacity:0.2;fill:#000000;fill-opacity:1" d="M 33.999998,18 A 22,22 0 0 0 12,40 22,22 0 0 0 33.999998,62 22,22 0 0 0 56,40 22,22 0 0 0 33.999998,18 Z"/>
 <path d="M 33.999998,17 A 22,22 0 0 0 12,39 22,22 0 0 0 33.999998,61 22,22 0 0 0 56,39 22,22 0 0 0 33.999998,17 Z" style="fill:#ba122b;fill-opacity:1"/>
 <path d="M 34,3.9999994 A 18.000001,18.000001 0 0 0 16,21.999998 18.000001,18.000001 0 0 0 34,40 18.000001,18.000001 0 0 0 52,21.999998 18.000001,18.000001 0 0 0 34,3.9999994 Z" style="opacity:0.2;fill:#000000;fill-opacity:1"/>
 <path style="fill:#e9314e;fill-opacity:1" d="M 34,2.9999994 A 18.000001,18.000001 0 0 0 16,20.999998 18.000001,18.000001 0 0 0 34,39 18.000001,18.000001 0 0 0 52,20.999998 18.000001,18.000001 0 0 0 34,2.9999994 Z"/>
 <path style="opacity:0.2;fill:#ffffff;fill-opacity:1" d="M 34 3 A 18.000001 18.000001 0 0 0 16 21 A 18.000001 18.000001 0 0 0 16.021484 21.410156 A 18.000001 18.000001 0 0 1 34 4 A 18.000001 18.000001 0 0 1 51.978516 21.572266 A 18.000001 18.000001 0 0 0 52 21 A 18.000001 18.000001 0 0 0 34 3 z"/>
 <path style="opacity:0.2;fill:#000000;fill-opacity:1" d="M 21.999998,14.000001 A 14.000001,14.000001 0 0 0 8,27.999998 14.000001,14.000001 0 0 0 21.999998,42 14.000001,14.000001 0 0 0 36,27.999998 14.000001,14.000001 0 0 0 21.999998,14.000001 Z"/>
 <path d="M 21.999998,13.000001 A 14.000001,14.000001 0 0 0 8,26.999998 14.000001,14.000001 0 0 0 21.999998,41 14.000001,14.000001 0 0 0 36,26.999998 14.000001,14.000001 0 0 0 21.999998,13.000001 Z" style="fill:#ef6e82;fill-opacity:1"/>
 <path style="opacity:0.1;fill:#ffffff;fill-opacity:1" d="M 22 13 A 14.000001 14.000001 0 0 0 8 27 A 14.000001 14.000001 0 0 0 8.0214844 27.410156 A 14.000001 14.000001 0 0 1 22 14 A 14.000001 14.000001 0 0 1 35.976562 27.537109 A 14.000001 14.000001 0 0 0 36 27 A 14.000001 14.000001 0 0 0 22 13 z"/>
 <g style="opacity:0.2;fill:#000000;fill-opacity:1" transform="translate(0,1)">
  <path style="opacity:1;fill:#000000;fill-opacity:1" d="M 34,21 A 18,18 0 0 0 16,39 18,18 0 0 0 34,57 18,18 0 0 0 52,39 18,18 0 0 0 34,21 Z m 0,3 A 15,15 0 0 1 49,39 15,15 0 0 1 34,54 15,15 0 0 1 19,39 15,15 0 0 1 34,24 Z"/>
  <path style="opacity:1;fill:#000000;fill-opacity:1" d="M 22,17 A 10.000001,10.000001 0 0 0 12,27 10.000001,10.000001 0 0 0 22,37 10.000001,10.000001 0 0 0 32,27 10.000001,10.000001 0 0 0 22,17 Z m 0,3 a 7.0000005,7.0000005 0 0 1 7,7 7.0000005,7.0000005 0 0 1 -7,7 7.0000005,7.0000005 0 0 1 -7,-7 7.0000005,7.0000005 0 0 1 7,-7 z"/>
  <path style="opacity:1;fill:#000000;fill-opacity:1" d="M 34,7 A 14.000001,14.000001 0 0 0 20,21 14.000001,14.000001 0 0 0 34,35 14.000001,14.000001 0 0 0 48,21 14.000001,14.000001 0 0 0 34,7 Z m 0,3 A 11.000001,11.000001 0 0 1 45,21 11.000001,11.000001 0 0 1 34,32 11.000001,11.000001 0 0 1 23,21 11.000001,11.000001 0 0 1 34,10 Z"/>
 </g>
 <g>
  <path d="M 34 21 A 18 18 0 0 0 16 39 A 18 18 0 0 0 34 57 A 18 18 0 0 0 52 39 A 18 18 0 0 0 34 21 z M 34 24 A 15 15 0 0 1 49 39 A 15 15 0 0 1 34 54 A 15 15 0 0 1 19 39 A 15 15 0 0 1 34 24 z" style="opacity:1;fill:#ffffff;fill-opacity:1"/>
  <path d="M 22 17 A 10.000001 10.000001 0 0 0 12 27 A 10.000001 10.000001 0 0 0 22 37 A 10.000001 10.000001 0 0 0 32 27 A 10.000001 10.000001 0 0 0 22 17 z M 22 20 A 7.0000005 7.0000005 0 0 1 29 27 A 7.0000005 7.0000005 0 0 1 22 34 A 7.0000005 7.0000005 0 0 1 15 27 A 7.0000005 7.0000005 0 0 1 22 20 z" style="opacity:1;fill:#ffffff;fill-opacity:1"/>
  <path d="M 34 7 A 14.000001 14.000001 0 0 0 20 21 A 14.000001 14.000001 0 0 0 34 35 A 14.000001 14.000001 0 0 0 48 21 A 14.000001 14.000001 0 0 0 34 7 z M 34 10 A 11.000001 11.000001 0 0 1 45 21 A 11.000001 11.000001 0 0 1 34 32 A 11.000001 11.000001 0 0 1 23 21 A 11.000001 11.000001 0 0 1 34 10 z" style="opacity:1;fill:#ffffff;fill-opacity:1"/>
 </g>
</svg>

<?xml version="1.0" encoding="UTF-8" standalone="no"?>
<svg xmlns="http://www.w3.org/2000/svg" height="64" width="64" version="1.1" viewBox="0 0 64 64">
 <path style="opacity:.2;fill:#000000" d="m34 18a22 22 0 0 0 -22 22 22 22 0 0 0 22 22 22 22 0 0 0 22 -22 22 22 0 0 0 -22 -22z"/>
 <path style="fill:#ba122b" d="m34 17a22 22 0 0 0 -22 22 22 22 0 0 0 22 22 22 22 0 0 0 22 -22 22 22 0 0 0 -22 -22z"/>
 <path style="opacity:.2;fill:#000000" d="m34 4a18 18 0 0 0 -18 18 18 18 0 0 0 18 18 18 18 0 0 0 18 -18 18 18 0 0 0 -18 -18z"/>
 <path style="fill:#e9314e" d="m34 3a18 18 0 0 0 -18 18 18 18 0 0 0 18 18 18 18 0 0 0 18 -18 18 18 0 0 0 -18 -18z"/>
 <path style="opacity:.2;fill:#ffffff" d="m34 3a18 18 0 0 0 -18 18 18 18 0 0 0 .021 .410 18 18 0 0 1 17.979 -17.41 18 18 0 0 1 17.979 17.572 18 18 0 0 0 .021 -.572 18 18 0 0 0 -18 -18z"/>
 <path style="opacity:.2;fill:#000000" d="m22 14a14 14 0 0 0 -14 14 14 14 0 0 0 14 14 14 14 0 0 0 14 -14 14 14 0 0 0 -14 -14z"/>
 <path style="fill:#ef6e82" d="m22 13a14 14 0 0 0 -14 14 14 14 0 0 0 14 14 14 14 0 0 0 14 -14 14 14 0 0 0 -14 -14z"/>
 <path style="opacity:.2;fill:#ffffff" d="m22 13a14 14 0 0 0 -14 14 14 14 0 0 0 .0215 .410 14 14 0 0 1 13.978 -13.41 14 14 0 0 1 13.977 13.537 14 14 0 0 0 .023 -.537 14 14 0 0 0 -14 -14z"/>
 <g style="opacity:.2;fill:#000000" transform="translate(0,1)">
  <path style="opacity:1;fill:#000000" d="m34 21a18 18 0 0 0 -18 18 18 18 0 0 0 18 18 18 18 0 0 0 18 -18 18 18 0 0 0 -18 -18zm0 3a15 15 0 0 1 15 15 15 15 0 0 1 -15 15 15 15 0 0 1 -15 -15 15 15 0 0 1 15 -15z"/>
  <path style="opacity:1;fill:#000000" d="m22 17a10 10 0 0 0 -10 10 10 10 0 0 0 10 10 10 10 0 0 0 10 -10 10 10 0 0 0 -10 -10zm0 3a7 7 0 0 1 7 7 7 7 0 0 1 -7 7 7 7 0 0 1 -7 -7 7 7 0 0 1 7 -7z"/>
  <path style="opacity:1;fill:#000000" d="m34 7a14 14 0 0 0 -14 14 14 14 0 0 0 14 14 14 14 0 0 0 14 -14 14 14 0 0 0 -14 -14zm0 3a11 11 0 0 1 11 11 11 11 0 0 1 -11 11 11 11 0 0 1 -11 -11 11 11 0 0 1 11 -11z"/>
 </g>
 <path style="fill:#ffffff" d="m34 21a18 18 0 0 0 -18 18 18 18 0 0 0 18 18 18 18 0 0 0 18 -18 18 18 0 0 0 -18 -18zm0 3a15 15 0 0 1 15 15 15 15 0 0 1 -15 15 15 15 0 0 1 -15 -15 15 15 0 0 1 15 -15z"/>
 <path style="fill:#ffffff" d="m22 17a10 10 0 0 0 -10 10 10 10 0 0 0 10 10 10 10 0 0 0 10 -10 10 10 0 0 0 -10 -10zm0 3a7 7 0 0 1 7 7 7 7 0 0 1 -7 7 7 7 0 0 1 -7 -7 7 7 0 0 1 7 -7z"/>
 <path style="fill:#ffffff" d="m34 7a14 14 0 0 0 -14 14 14 14 0 0 0 14 14 14 14 0 0 0 14 -14 14 14 0 0 0 -14 -14zm0 3a11 11 0 0 1 11 11 11 11 0 0 1 -11 11 11 11 0 0 1 -11 -11 11 11 0 0 1 11 -11z"/>
</svg>
